X: 33300
T: Put The Gown On The Bishop
R: reel
M: 4/4
K: Gmajor
|:(DE)(GA) ~G3B|A3B (BA)(GE)|(DE)(GA) G3A|(GA)BA G2D2|
c3d (BABd)|(efg)B A2 ef|{a}(g2 fe dcBA)|~G3A {A}B2 D2:|
|:de)(ga) g3b|a3b ba ge|(de)(ga) g3a|(gab)a g2d2|
e(gfg) d(gfg)|(Bd)(gB) A2 ef|(g2 fe dcBA)|~G3(A B2D2):|

